docs/assets/logo/momiji_iwcc.svg

<svg xmlns="http://www.w3.org/2000/svg" viewBox="0 0 43.86 57.09"><defs><style>.cls-1{fill:#c18f00;}</style></defs><g id="編集モード"><path class="cls-1" d="M18.78,34.47A88.06,88.06,0,0,1,11.52,50.2c-1.74,2.53-2.75,3.33-3,4.45l-.58,2.18,1,.26a13.67,13.67,0,0,1,.35-2.3c.26-1,1.68-2.82,3-4.94s5.63-10.3,7.14-15.23a10.69,10.69,0,0,0,4.47,4.5,34.89,34.89,0,0,0,7.79,3.06,11.13,11.13,0,0,0-3.16-4c-2.08-1.54-4.82-3.25-4.82-3.25A16.51,16.51,0,0,0,31,36.21c3.94-.31,11.66-2.94,11.66-2.94s-5.76-2.21-9.45-2.52a58.9,58.9,0,0,0-7.38-.07s5.91-1.22,9.5-5.63S43.86,13.5,43.86,13.5s-8.12,2.15-12.22,5.06a52.72,52.72,0,0,0-6.7,5.61A39.75,39.75,0,0,0,27.5,11.72,86.59,86.59,0,0,0,27.45,0a46.53,46.53,0,0,0-6,10.63,60.42,60.42,0,0,0-2.69,8.12s-2-5.29-4.5-7.77-5.41-6-5.41-6-.09,8,.89,11.41a71.63,71.63,0,0,0,2.85,7.7A18.62,18.62,0,0,0,6.7,21.5L0,20s4.22,6.56,7.22,8.34A73.38,73.38,0,0,0,14.56,32a13,13,0,0,0-5.44.59c-2.14.94-5.94,3-5.94,3a49,49,0,0,0,7.74.7A27.44,27.44,0,0,0,18.78,34.47Z"/></g></svg>

<?xml version="1.0" encoding="UTF-8" standalone="no"?>
<svg
   xmlns:dc="http://purl.org/dc/elements/1.1/"
   xmlns:cc="http://creativecommons.org/ns#"
   xmlns:rdf="http://www.w3.org/1999/02/22-rdf-syntax-ns#"
   xmlns:svg="http://www.w3.org/2000/svg"
   xmlns="http://www.w3.org/2000/svg"
   xmlns:sodipodi="http://sodipodi.sourceforge.net/DTD/sodipodi-0.dtd"
   xmlns:inkscape="http://www.inkscape.org/namespaces/inkscape"
   viewBox="0 0 43.86 57.09"
   version="1.1"
   id="svg9"
   sodipodi:docname="momiji_iwcc.svg"
   inkscape:version="0.92.4 (5da689c313, 2019-01-14)">
  <metadata
     id="metadata13">
    <rdf:RDF>
      <cc:Work
         rdf:about="">
        <dc:format>image/svg+xml</dc:format>
        <dc:type
           rdf:resource="http://purl.org/dc/dcmitype/StillImage" />
      </cc:Work>
    </rdf:RDF>
  </metadata>
  <sodipodi:namedview
     pagecolor="#ffffff"
     bordercolor="#111111"
     borderopacity="1"
     objecttolerance="10"
     gridtolerance="10"
     guidetolerance="10"
     inkscape:pageopacity="0"
     inkscape:pageshadow="2"
     inkscape:window-width="1842"
     inkscape:window-height="1051"
     id="namedview11"
     showgrid="false"
     inkscape:zoom="4.1338238"
     inkscape:cx="21.93"
     inkscape:cy="28.545"
     inkscape:window-x="69"
     inkscape:window-y="-9"
     inkscape:window-maximized="1"
     inkscape:current-layer="layer1" />
  <defs
     id="defs4">
    <style
       id="style2">.cls-1{fill:#c18f00;}</style>
  </defs>
  <g
     inkscape:groupmode="layer"
     id="layer2"
     inkscape:label="ベース">
    <path
       inkscape:connector-curvature="0"
       style="fill:#8a000b;fill-opacity:1"
       id="path6"
       d="M 18.78,34.47 A 88.06,88.06 0 0 1 11.52,50.2 c -1.74,2.53 -2.75,3.33 -3,4.45 l -0.58,2.18 1,0.26 a 13.67,13.67 0 0 1 0.35,-2.3 c 0.26,-1 1.68,-2.82 3,-4.94 1.32,-2.12 5.63,-10.3 7.14,-15.23 a 10.69,10.69 0 0 0 4.47,4.5 34.89,34.89 0 0 0 7.79,3.06 11.13,11.13 0 0 0 -3.16,-4 C 26.45,36.64 23.71,34.93 23.71,34.93 A 16.51,16.51 0 0 0 31,36.21 c 3.94,-0.31 11.66,-2.94 11.66,-2.94 0,0 -5.76,-2.21 -9.45,-2.52 a 58.9,58.9 0 0 0 -7.38,-0.07 c 0,0 5.91,-1.22 9.5,-5.63 3.59,-4.41 8.53,-11.55 8.53,-11.55 0,0 -8.12,2.15 -12.22,5.06 A 52.72,52.72 0 0 0 24.94,24.17 39.75,39.75 0 0 0 27.5,11.72 86.59,86.59 0 0 0 27.45,0 a 46.53,46.53 0 0 0 -6,10.63 60.42,60.42 0 0 0 -2.69,8.12 c 0,0 -2,-5.29 -4.5,-7.77 -2.5,-2.48 -5.41,-6 -5.41,-6 0,0 -0.09,8 0.89,11.41 a 71.63,71.63 0 0 0 2.85,7.7 A 18.62,18.62 0 0 0 6.7,21.5 L 0,20 c 0,0 4.22,6.56 7.22,8.34 A 73.38,73.38 0 0 0 14.56,32 13,13 0 0 0 9.12,32.59 c -2.14,0.94 -5.94,3 -5.94,3 a 49,49 0 0 0 7.74,0.7 27.44,27.44 0 0 0 7.86,-1.82 z"
       class="cls-1" />
  </g>
  <g
     inkscape:groupmode="layer"
     id="layer1"
     inkscape:label="シェード">
    <path
       style="fill:#e5d9a0;fill-opacity:0.52173913"
       id="path6-2"
       d="M 18.78,34.47 A 88.06,88.06 0 0 1 11.52,50.2 c -1.74,2.53 -2.75,3.33 -3,4.45 l -0.58,2.18 1,0.26 a 13.67,13.67 0 0 1 0.35,-2.3 c 0.26,-1 1.68,-2.82 3,-4.94 1.32,-2.12 5.63,-10.3 7.14,-15.23 a 10.69,10.69 0 0 0 4.47,4.5 34.89,34.89 0 0 0 7.790004,3.06 11.13,11.13 0 0 0 -3.160004,-4 C 26.45,36.64 23.71,34.93 23.71,34.93 A 16.51,16.51 0 0 0 31,36.21 c 3.940004,-0.31 11.660004,-2.94 11.660004,-2.94 0,0 -5.76,-2.21 -9.45,-2.52 A 58.9,58.9 0 0 0 25.83,30.68 c 0,0 5.910004,-1.22 9.500004,-5.63 3.59,-4.41 8.53,-11.55 8.53,-11.55 0,0 -8.12,2.15 -12.22,5.06 A 52.72,52.72 0 0 0 24.94,24.17 39.75,39.75 0 0 0 27.5,11.72 86.59,86.59 0 0 0 27.45,-3.9999999e-7 46.53,46.53 0 0 0 21.45,10.63 60.42,60.42 0 0 0 18.76,18.75 c 0,0 -2,-5.29 -4.5,-7.77 C 11.76,8.5 8.85,4.9799996 8.85,4.9799996 8.85,4.9799996 8.76,12.98 9.74,16.39 a 71.63,71.63 0 0 0 2.85,7.7 A 18.62,18.62 0 0 0 6.7,21.5 L 0,20 c 0,0 4.22,6.56 7.22,8.34 A 73.38,73.38 0 0 0 14.56,32 13,13 0 0 0 9.12,32.59 c -2.14,0.94 -5.94,3 -5.94,3 a 49,49 0 0 0 7.74,0.7 27.44,27.44 0 0 0 7.86,-1.82 z"
       class="cls-1"
       inkscape:connector-curvature="0" />
  </g>
</svg>
